X:1
T:My Lord Size
M:6/8
L:1/16
K:C
cd|e3dc2c2B2A2|G2c2c2(e2c3)c|c2e2g2g2f2e2|d3cd2(e2d2)cd|e3dc2c2B2A2|G2c2
c2(e2c3)c|c3eg2g2f2e2|d3c(d2(e2c2)Bc|d2B2G2G2G2G2|e2c2c2c4de|f2d2f2e2c2e2|B2d2f2(e2d2)zG|G2c2c2c2e2e2|e2g2g2g4cd|e3dc2c2B2A2|G2c2c2(e2c2)||
% Output from ABC2Win  Version 2.1 i on 3/5/2000
